X: 13683
T: Foot That Faltered, The
R: waltz
M: 3/4
K: Fdorian
|:B,A,|G,2B,2E2|G2c3B|A2D2F2|[F6d6]|B,2D2F2|A2d3c|cB3E2|G4B,A,|
G,2B,2E2|G2c3B|A2D2F2|[F6d6]|[B,][B,][B,2D2][B,2D2]|[A,][A,][A,2D2][A,2D2]|[G,3E3][G,D] [G,E][G,F]|[G,4E4]:|
|:gf|g3=A Bc|B2e2gf|g3=A Bc|B2e2g2|f3A[A2c2]|[A4c4]fg|f3A[A2c2]|[A4c4]gf|
g3=A Bc|B2e2gf|g3=A Bc|B2e2g2|f3A[A2c2]|[A4c4][A2c2]|[D3B3]cd2|[G4e4]:|

